X:1
T:Es ist ein' Ros
T:Es ist ein' Ros
T:Public domain
Z:Public domain
%%score ( 1 2 ) ( 3 4 )
L:1/8
M:none
K:F
V:1 treble nm="Unnamed-000"
V:2 treble 
V:3 bass nm="Es ist ein' Ros"
V:4 bass 
V:1
 ([Fc]4 [Fc]2 [Fc]2 [Fd]2 [Fc]2 | [Ec]4 [DA]4 [DB]4 | A2 G4 D2 F4 C4 E2 [CF]4) [Ac]4 | %3
 [Ac]2 [Fc]2 [Fd]2 [Fc]2 | [Ec]4 [DA]4 [DB]4 | A2 G4 F4 E2 [CF]6 [FA]2 | %6
 [DG]2 [CE]2 [CF]2 [=B,D]2 | C6 ([Ec]2 | [Gc]2 [Fc]2 [Fd]2 [Fc]2 | [Ec]4 [DA]4 [DB]4 | %10
 [FA]2 G2 [CF]4 [CE]2 | [CF]8) |] %12
V:2
 x12 | x12 | C4 A,2 x20 | x8 | x12 | C4 D2 A,2 C4 x8 | x8 | x8 | x8 | x12 | x2 D2 x6 | x8 |] %12
V:3
 ([F,A,]4 [F,A,]2 [F,A,]2 B,2 [F,A,]2 | [C,G,]4 [D,F,]4 [B,,F,]4 | %2
 [F,A,]2 [E,C]2 B,2 C,4 [F,A,]4) [F,C]4 x8 | [F,C]2 [F,A,]2 B,2 [F,A,]2 | %4
 [C,G,]4 [D,F,]4 [B,,F,]4 | [F,A,]2 [E,C]2 B,2 A,4 G,2 [F,A,]6 [A,C]2 | [G,B,]2 A,2 [F,A,]2 G,2 | %7
 [C,E,] [D,F,] [E,G,]4 [C,G,]2 | [E,G,]2 [F,A,]2 [B,,B,]2 [F,A,]2 | [C,G,]4 [D,^F,]4 [G,,G,]4 | %10
 [A,,C]2 [B,,B,]2 [C,A,]4 [C,G,]2 | [F,A,]8 |] %12
V:4
 x12 | x12 | x4 D,4 A,4 G,2 x12 | x8 | x12 | x4 D,4 C,4 x8 | x8 | x8 | x8 | x12 | x10 | x8 |] %12

